assets/images/script/m-1-beg.svg

<svg fill="none" height="241" viewBox="0 0 207 241" width="207" xmlns="http://www.w3.org/2000/svg"><path d="m154.728 3.10352c19.011 0-37.591 3.09022-56.5634 4.31421-4.7605.30713-95.40996 2.14873-95.40996-2.73142 0-.27045 18.12936 17.51359 19.01696 18.24689 26.352 21.769 47.8921 48.1913 63.8775 78.4248 15.5099 29.333 32.9999 63.812 35.5959 97.442.487 6.302 1.021 46.501-15.441 38.27-15.0879-7.544-24.9487-31.711-27.3878-47.373-3.5827-23.004 1.0397-45.496 16.8227-62.902 15.8531-17.484 36.3531-30.5584 57.5381-40.6345 10.016-4.7633 22.849-10.4688 31.126 0 5.963 7.5412 35.597 52.6015 8.097 63.1015-18.5 2-25-6.5-25-16s6-18.5 21.5-18.5" stroke="#000" stroke-linecap="round" stroke-width="5"/></svg>

<svg width="207" height="241" viewBox="0 0 207 241" fill="none" xmlns="http://www.w3.org/2000/svg">
<path d="M154.728 3.10352C173.739 3.10352 117.137 6.19374 98.1646 7.41773C93.4041 7.72486 2.75464 9.56646 2.75464 4.68631C2.75464 4.41586 20.884 22.1999 21.7716 22.9332C48.1236 44.7022 69.6637 71.1245 85.6491 101.358C101.159 130.691 118.649 165.17 121.245 198.8C121.732 205.102 122.266 245.301 105.804 237.07C90.7161 229.526 80.8553 205.359 78.4162 189.697C74.8335 166.693 79.4559 144.201 95.2389 126.795C111.092 109.311 131.592 96.2366 152.777 86.1605C162.793 81.3972 175.626 75.6917 183.903 86.1605C189.866 93.7017 219.5 138.762 192 149.262C173.5 151.262 167 142.762 167 133.262C167 123.762 173 114.762 188.5 114.762" stroke="black" stroke-width="5" stroke-linecap="round"/>
</svg>
